!!!COM:	Bach, Johann Sebastian
!!!CDT:	1685/02/21/-1750/07/28/
!!!OTL@@DE:	Christus, der uns delig macht
!!!SCT:	BWV 245/15
!!!PC#:	81
!!!AGN:	chorale
**kern	**kern	**kern	**kern
*ICvox	*ICvox	*ICvox	*ICvox
*Ibass	*Itenor	*Ialto	*Isoprn
*I"Bass	*I"Tenor	*I"Alto	*I"Soprano
*clefF4	*clefGv2	*clefG2	*clefG2
*k[]	*k[]	*k[]	*k[]
*a:	*a:	*a:	*a:
*M4/4	*M4/4	*M4/4	*M4/4
*met(c)	*met(c)	*met(c)	*met(c)
*MM100	*MM100	*MM100	*MM100
=1-	=1-	=1-	=1-
4E	4B	4g#	4ee
4E	4B	4g#	4ee
4A	4c	4a	4ee
4GnX	8BL	4b	4ee
.	8cJ	.	.
=2	=2	=2	=2
4F	8dL	4a	4dd
.	8eJ	.	.
8EL	4f	4a	4cc
8DJ	.	.	.
2E;	2B;	2g#;	2b;
=3	=3	=3	=3
4A	4A	8eL	4cc
.	.	8f#J	.
4G	4B-	4gnX	4dd
4C#	4B-	4g	4ee
4C#	4A	8fL	4ee
.	.	8eJ	.
=4	=4	=4	=4
4D	2A	4f	4dd
4AA	.	4e	4cc
2E;	2G#;	2e;	2b;
=5	=5	=5	=5
4A	4c	4e	4a
4G#	4B	4e	4b
4A	8AL	4e	4cc
.	8BJ	.	.
4F	8cL	4f	4a
.	8dJ	.	.
=6	=6	=6	=6
4C#	4e	4e	8aL
.	.	.	8gnXJ
4D	4A	4d	4f
2AA;	2A;	2c#;	2e;
=7	=7	=7	=7
4D	4A	4d	4f
4CnX	4cnX	4e	4g
4FF	4c	4e-	4a
4FF#	4c	4d	4a
=8	=8	=8	=8
4GG	8B-L	2d	4g
.	8cJ	.	.
4GG#	4d	.	4f
2AA;	2A;	2c#;	2e;
=9	=9	=9	=9
4F	4A	4d	4a
8EL	4BnX	4e	4g#
8DJ	.	.	.
4C	4c	4e	4a
4BB	4d	8f#L	4b
.	.	8g#XJ	.
=10	=10	=10	=10
4AA	4e	4a	4cc
8BBL	4d	4gnX	4b
8CJ	.	.	.
2D;	2d;	2f#;	2a;
=11	=11	=11	=11
4E-	4c	4g	4cc
4D	4B-	4g	4dd
4C#	4A	4g	4ee
8DL	4A	4fnX	4ee
8EJ	.	.	.
=12	=12	=12	=12
8FL	8AL	4f	4dd
8GJ	8BnXJ	.	.
4A	4c	8eL	4cc
.	.	8f#J	.
2G;	2d;	2g;	2b;
=13	=13	=13	=13
4F#	8dL	4a	4a
.	8cJ	.	.
4G#	4B	4e	4b
4A	8AL	4e	4cc
.	8BJ	.	.
8AAL	8cL	4e	4a
8BBJ	8dJ	.	.
=14	=14	=14	=14
4C#	4e	4A	8aL
.	.	.	8gJ
4D	4A	4d	4f
2AA;	2A;	2c#;	2e;
=15	=15	=15	=15
4D	4A	4d	4f
4CnX	4cnX	4e	4g
8FFL	4c	4f	4a
8GG	.	.	.
8AA	4c	4f	4a
8BBJ	.	.	.
=16	=16	=16	=16
4C	8cL	4e	4g
.	8BJ	.	.
4D	4A	2d	4f
[2E	4G#	.	[2e
.	4A	4c	.
=17	=17	=17	=17
1E;]	1G#;	1B;	1e;]
==	==	==	==
*-	*-	*-	*-
!!!hum2abc: -Q ''
!!!title: @{PC#}. @{OTL@@DE}
!!!YOR1: 371 vierstimmige Choralges&auml;nge von Johann Sebastian Bach, 
!!!YOR2: 4th ed. by Alfred D&ouml;rffel (Leipzig: Breitkopf und H&auml;rtel, 
!!!YOR2: c.1875). 178 pp. Plate "V.A.10".  reprint: J.S. Bach, 371 Four-Part 
!!!YOR4: Chorales (New York: Associated Music Publishers, Inc., c.1940).
!!!SMS: B&H, 4th ed, Alfred D&ouml;rffel, c.1875, plate V.A.10
!!!EED:  Craig Stuart Sapp
!!!EEV:  2009/05/22
